packages/kaspersky-hexa-ui-icons/src/iconsSVGs/16/Usb.svg

<svg width="16" height="16" viewBox="0 0 16 16" fill="none" xmlns="http://www.w3.org/2000/svg">
<path d="M8.3213 0.969695C8.16138 0.754079 7.83866 0.754079 7.67874 0.969695L6.39523 2.70023C6.19945 2.96418 6.38787 3.33851 6.7165 3.33851H7.35002V8.68332H5.66669C5.47339 8.68332 5.31669 8.52662 5.31669 8.33332V7.33551C5.81103 7.09445 6.15161 6.587 6.15161 6C6.15161 5.17986 5.48676 4.51501 4.66663 4.51501C3.84649 4.51501 3.18164 5.17986 3.18164 6C3.18164 6.58704 3.52228 7.09453 4.01669 7.33557V8.33332C4.01669 9.24459 4.75542 9.98332 5.66669 9.98332H7.35002V11.9234C6.70499 12.1814 6.24933 12.8122 6.24933 13.5494C6.24933 14.5162 7.0331 15.3 7.99994 15.3C8.96677 15.3 9.75055 14.5162 9.75055 13.5494C9.75055 12.8123 9.29497 12.1815 8.65002 11.9234V9.98332H10.3334C11.2446 9.98332 11.9834 9.24459 11.9834 8.33332V7.28214C12.3804 7.14967 12.6667 6.77492 12.6667 6.33332V5.66665C12.6667 5.11437 12.219 4.66665 11.6667 4.66665H11C10.4477 4.66665 10 5.11437 10 5.66665V6.33332C10 6.77494 10.2863 7.14969 10.6834 7.28215V8.33332C10.6834 8.52662 10.5267 8.68332 10.3334 8.68332H8.65002V3.33851H9.28354C9.61217 3.33851 9.80059 2.96418 9.60481 2.70023L8.3213 0.969695Z" fill="black"/>
</svg>

<svg xmlns="http://www.w3.org/2000/svg" width="16" height="16" fill="none" viewBox="0 0 16 16"><path fill="#000" d="M8.3213.9697c-.16-.2156-.4826-.2156-.6426 0L6.3952 2.7002c-.1958.264-.0073.6383.3213.6383H7.35v5.3448H5.6667a.35.35 0 0 1-.35-.35v-.9978c.4943-.241.835-.7485.835-1.3355 0-.8201-.665-1.485-1.485-1.485-.8202 0-1.485.6649-1.485 1.485 0 .587.3406 1.0945.835 1.3356v.9977c0 .9113.7387 1.65 1.65 1.65H7.35v1.9401c-.645.258-1.1007.8888-1.1007 1.626 0 .9668.7838 1.7506 1.7506 1.7506.9669 0 1.7507-.7838 1.7507-1.7506 0-.7371-.4556-1.3679-1.1006-1.626v-1.94h1.6834c.9112 0 1.65-.7388 1.65-1.65V7.282c.397-.1324.6833-.5072.6833-.9488v-.6667c0-.5522-.4477-1-1-1H11c-.5523 0-1 .4478-1 1v.6667c0 .4416.2863.8164.6834.9488v1.0512a.35.35 0 0 1-.35.35H8.65V3.3385h.6335c.3287 0 .517-.3743.3213-.6383z"/></svg>
